X: 9
T: Saint Patrick's Day
R: jig
M: 6/8
L: 1/8
K: Cmaj
|: G |c>dc cef | g>ag gec | dcd ecG | A>BA A2 G |
c>dc cef | fag gec | d>cd ecG | A2 [DB] [E2c2] :|
|: g |gab c'2 a | b2 g a2 f | gab c'2 a | bag a2 {d'/}c' |
c>dc cef | gag gec | d>cd ecG | A2 [DB] [E2c2] :|


Tune 385	Setting 13215

